modules/feathericon/icons/list-order.svg

<?xml version="1.0" encoding="UTF-8"?>
<svg width="12px" height="14px" viewBox="0 0 12 14" version="1.1" xmlns="http://www.w3.org/2000/svg" xmlns:xlink="http://www.w3.org/1999/xlink">
    <!-- Generator: sketchtool 48.1 (47250) - http://www.bohemiancoding.com/sketch -->
    <title>list-order</title>
    <desc>Created with sketchtool.</desc>
    <defs></defs>
    <g id="text-edit" stroke="none" stroke-width="1" fill="none" fill-rule="evenodd">
        <g id="list-order" fill="#000000">
            <path d="M4,11 L12,11 L12,13 L4,13 L4,11 Z M4,6 L12,6 L12,8 L4,8 L4,6 Z M4,1 L12,1 L12,3 L4,3 L4,1 Z M1.5,10 C1.68691682,10 1.85560672,10.0257102 2.00607477,10.0771313 C2.15654281,10.1285524 2.2850462,10.1998191 2.39158879,10.2909337 C2.49813137,10.3820483 2.57990626,10.4889484 2.63691589,10.6116373 C2.69392552,10.7343263 2.72242991,10.8669366 2.72242991,11.0094723 C2.72242991,11.1339654 2.70794407,11.2435719 2.67897196,11.338295 C2.64999986,11.4330181 2.6079442,11.5155612 2.55280374,11.5859269 C2.49766328,11.6562926 2.43037423,11.715832 2.35093458,11.7645467 C2.27149493,11.8132614 2.18130892,11.8538564 2.08037383,11.8863329 C2.3233657,11.9603071 2.5046723,12.073071 2.62429907,12.2246279 C2.74392583,12.3761848 2.80373832,12.5665302 2.80373832,12.7956698 C2.80373832,12.9905287 2.76635551,13.1628319 2.69158879,13.3125846 C2.61682206,13.4623372 2.51588849,13.5881817 2.38878505,13.6901218 C2.26168161,13.7920619 2.11448682,13.8691923 1.94719626,13.9215156 C1.77990571,13.9738388 1.60280467,14 1.41588785,14 C1.21214851,14 1.0345802,13.9774472 0.88317757,13.932341 C0.731774944,13.8872348 0.600000561,13.8204786 0.487850467,13.7320704 C0.375700374,13.6436622 0.280374224,13.5354088 0.201869159,13.4073072 C0.123364093,13.2792055 0.0560750467,13.1312593 0,12.9634641 L0.305607477,12.8416779 C0.357944187,12.820027 0.411214682,12.8092016 0.465420561,12.8092016 C0.514018935,12.8092016 0.557476444,12.8191248 0.595794393,12.8389716 C0.634112341,12.8588183 0.663551299,12.8876859 0.68411215,12.9255751 C0.717757178,12.9887238 0.754672696,13.0509695 0.794859813,13.1123139 C0.83504693,13.1736584 0.88317729,13.2282361 0.939252336,13.2760487 C0.995327383,13.3238613 1.06121457,13.3626521 1.13691589,13.3924222 C1.2126172,13.4221923 1.30280321,13.4370771 1.40747664,13.4370771 C1.52523423,13.4370771 1.62803694,13.4185839 1.71588785,13.3815968 C1.80373876,13.3446096 1.87710251,13.2963467 1.93598131,13.2368065 C1.99486011,13.1772663 2.0387849,13.1109611 2.06775701,13.037889 C2.09672912,12.964817 2.11121495,12.8912949 2.11121495,12.8173207 C2.11121495,12.7234998 2.10093468,12.6382503 2.08037383,12.5615697 C2.05981298,12.4848891 2.01682276,12.4194861 1.95140187,12.3653586 C1.88598098,12.3112311 1.79205669,12.2688319 1.66962617,12.2381597 C1.54719565,12.2074874 1.3831786,12.1921516 1.17757009,12.1921516 L1.17757009,11.7158322 C1.3476644,11.714028 1.48878449,11.6986921 1.60093458,11.6698241 C1.71308467,11.6409561 1.80233612,11.6008122 1.86869159,11.5493911 C1.93504706,11.49797 1.98130828,11.4361754 2.00747664,11.3640054 C2.03364499,11.2918355 2.04672897,11.2124497 2.04672897,11.1258457 C2.04672897,10.9400081 1.99439305,10.7997298 1.88971963,10.7050068 C1.78504621,10.6102837 1.64205698,10.5629229 1.46074766,10.5629229 C1.29626086,10.5629229 1.15981363,10.604871 1.05140187,10.6887686 C0.942990112,10.7726662 0.867289935,10.8804684 0.824299065,11.0121786 C0.801869047,11.0807401 0.771028234,11.1299051 0.731775701,11.1596752 C0.692523168,11.1894453 0.641121813,11.2043302 0.577570093,11.2043302 C0.547663402,11.2043302 0.515888019,11.2016238 0.482242991,11.1962111 L0.117757009,11.1339648 C0.145794533,10.9463229 0.199999598,10.7816877 0.280373832,10.6400541 C0.360748065,10.4984206 0.46121435,10.380244 0.581775701,10.285521 C0.702337051,10.1907979 0.840653425,10.1195311 0.996728972,10.0717185 C1.15280452,10.0239059 1.32055985,10 1.5,10 Z M1.95446097,5.08071135 C2.10873683,5.13451919 2.24070577,5.21066982 2.35037175,5.30916553 C2.46003772,5.40766123 2.54553873,5.5262191 2.60687732,5.66484268 C2.66821592,5.80346627 2.69888476,5.95759149 2.69888476,6.12722298 C2.69888476,6.27314254 2.67704483,6.40811611 2.63336431,6.53214774 C2.5896838,6.65617937 2.5311342,6.77473724 2.45771375,6.8878249 C2.38429331,7.00091256 2.29832763,7.11035059 2.19981413,7.21614227 C2.10130062,7.32193395 1.9981418,7.42954802 1.89033457,7.53898769 L0.981412639,8.36999989 C0.981412639,8.36999989 1.41078028,8.37072503 1.48884758,8.37072503 L2.5232342,8.37072503 C2.59758401,8.37072503 2.65659829,8.39124466 2.70027881,8.43228454 C2.74395933,8.47332442 2.76579926,8.52758744 2.76579926,8.59507524 L2.76579926,9 L0,9 L0,8.77564979 C0,8.73004993 0.00975826673,8.68262679 0.0292750929,8.63337893 C0.0487919191,8.58413108 0.0799254368,8.5385319 0.12267658,8.49658003 L1.34665428,7.29274966 C1.44888527,7.19060596 1.54042711,7.09302372 1.62128253,7 C1.70213795,6.90697628 1.76998114,6.81486594 1.82481413,6.72366621 C1.87964711,6.63246648 1.92146826,6.53990015 1.95027881,6.44596443 C1.97908936,6.35202871 1.99349442,6.2530785 1.99349442,6.14911081 C1.99349442,6.05426309 1.97955404,5.97081659 1.95167286,5.89876881 C1.92379168,5.82672103 1.88382926,5.76607412 1.83178439,5.71682627 C1.77973952,5.66757841 1.71793716,5.63064308 1.64637546,5.60601915 C1.57481377,5.58139523 1.49442424,5.56908345 1.40520446,5.56908345 C1.23977612,5.56908345 1.10362507,5.61012271 0.996747212,5.69220246 C0.889869354,5.77428222 0.815055976,5.88463223 0.772304833,6.02325581 C0.751858634,6.09256761 0.721189796,6.14227071 0.680297398,6.17236662 C0.639405,6.20246253 0.587360911,6.21751026 0.524163569,6.21751026 C0.496282388,6.21751026 0.46561355,6.21477431 0.432156134,6.20930233 L0.0697026022,6.14637483 C0.0975837825,5.9566794 0.151486589,5.79024239 0.231412639,5.64705882 C0.31133869,5.50387525 0.411244754,5.3844054 0.531133829,5.28864569 C0.651022904,5.19288598 0.788567997,5.12083927 0.943773234,5.07250342 C1.09897847,5.02416756 1.26579836,5 1.44423792,5 C1.63011245,5 1.8001851,5.02690352 1.95446097,5.08071135 Z M0.313567839,3.48895028 L1.19698492,3.48895028 L1.19698492,1.16022099 C1.19698492,1.06998113 1.19999997,0.975138619 1.20603015,0.875690608 L0.578894472,1.35635359 C0.552763688,1.37661152 0.526130789,1.39042354 0.498994975,1.39779006 C0.471859161,1.40515657 0.445226261,1.40883978 0.419095477,1.40883978 C0.378894271,1.40883978 0.342211221,1.40101297 0.309045226,1.38535912 C0.275879231,1.36970526 0.251256362,1.35174964 0.235175879,1.33149171 L0,1.0359116 L1.32964824,0 L1.94170854,0 L1.94170854,3.48895028 L2.72562814,3.48895028 L2.72562814,4 L0.313567839,4 L0.313567839,3.48895028 Z" id="Shape"></path>
        </g>
    </g>
</svg>

<svg width="12" height="14" xmlns="http://www.w3.org/2000/svg"><path d="M4 11h8v2H4v-2zm0-5h8v2H4V6zm0-5h8v2H4V1zm-2.5 9c.187 0 .356.026.506.077.15.052.279.123.386.214a.932.932 0 0 1 .33.719c0 .124-.014.234-.043.328a.755.755 0 0 1-.126.248.755.755 0 0 1-.202.179c-.08.048-.17.089-.27.121.242.074.424.187.543.339.12.151.18.342.18.57 0 .196-.038.368-.112.518-.075.15-.176.275-.303.377-.127.102-.275.18-.442.232a1.77 1.77 0 0 1-.531.078c-.204 0-.381-.023-.533-.068a1.171 1.171 0 0 1-.681-.525A2.154 2.154 0 0 1 0 12.963l.306-.121a.415.415 0 0 1 .16-.033.28.28 0 0 1 .13.03c.038.02.068.049.088.087a2.4 2.4 0 0 0 .11.186.692.692 0 0 0 .613.325.79.79 0 0 0 .309-.055.671.671 0 0 0 .22-.145.592.592 0 0 0 .175-.42c0-.094-.01-.179-.03-.255a.378.378 0 0 0-.13-.197.712.712 0 0 0-.281-.127 2.103 2.103 0 0 0-.492-.046v-.476c.17-.002.31-.017.423-.046a.733.733 0 0 0 .268-.12.409.409 0 0 0 .138-.186.694.694 0 0 0 .04-.238c0-.186-.053-.326-.157-.421-.105-.095-.248-.142-.43-.142-.164 0-.3.042-.409.126a.658.658 0 0 0-.227.323.293.293 0 0 1-.092.148.248.248 0 0 1-.154.044.601.601 0 0 1-.096-.008l-.364-.062c.028-.188.082-.352.162-.494a1.194 1.194 0 0 1 .717-.568A1.71 1.71 0 0 1 1.5 10zm.454-4.92c.155.055.287.13.396.23.11.098.196.216.257.355.061.138.092.293.092.462 0 .146-.022.281-.066.405a1.67 1.67 0 0 1-.175.356 2.4 2.4 0 0 1-.258.328c-.099.106-.202.214-.31.323l-.909.831h1.542c.075 0 .134.021.177.062a.213.213 0 0 1 .066.163V9H0v-.224a.385.385 0 0 1 .123-.28l1.224-1.203c.102-.102.193-.2.274-.293.081-.093.149-.185.204-.276a1.25 1.25 0 0 0 .125-.278c.03-.094.043-.193.043-.297a.691.691 0 0 0-.041-.25.49.49 0 0 0-.306-.293.738.738 0 0 0-.24-.037.651.651 0 0 0-.41.123.644.644 0 0 0-.224.331.274.274 0 0 1-.092.15.257.257 0 0 1-.156.045.574.574 0 0 1-.092-.009L.07 6.146c.028-.19.081-.356.161-.499a1.202 1.202 0 0 1 .713-.574c.155-.049.322-.073.5-.073.186 0 .356.027.51.08zM.314 3.49h.883V1.16c0-.09.003-.185.009-.284l-.627.48a.229.229 0 0 1-.08.042.304.304 0 0 1-.08.01.255.255 0 0 1-.11-.023.203.203 0 0 1-.074-.054L0 1.036 1.33 0h.612v3.489h.784V4H.314v-.511z" fill="#000" fill-rule="evenodd"/></svg>
